X:108
T:Blind Man's Ramble. JJo108, The
B:J.Johnson Choice Collection Vol 8 1758
Z:vmp.Simon Wilson 2013 www.village-music-project.org.uk
T:Chips n'Shavins,aka. JJo108
M:C|
L:1/8
Q:1/4=140
K:D
|:B/c/|dAFDG2(FE)|D>FAF GE- EB/c/|dAFDG2(FE)|A>cdA FD-D:|
|:F/G/|A2AG/F/ GEDF|A>BAF GE- EF/G/|A2AG/F/ GEDF|A>cdA FDD:|
|:B/c/|d>faf g2(fe)|d>faf ge- ef/g/|afge f>dcB|B<GFE FDD:|
